assets/img/icons/duotone-icons/Communication/RSS.svg

<?xml version="1.0" encoding="UTF-8"?>
<svg width="24px" height="24px" viewBox="0 0 24 24" version="1.1" xmlns="http://www.w3.org/2000/svg" xmlns:xlink="http://www.w3.org/1999/xlink">
    <!-- Generator: Sketch 52.2 (67145) - http://www.bohemiancoding.com/sketch -->
    <title>Stockholm-icons / Communication / RSS</title>
    <desc>Created with Sketch.</desc>
    <g id="Stockholm-icons-/-Communication-/-RSS" stroke="none" stroke-width="1" fill="none" fill-rule="evenodd">
        <rect id="bound" x="0" y="0" width="24" height="24"></rect>
        <circle id="Oval-40" fill="#335EEA" cx="6" cy="18" r="3"></circle>
        <path d="M16.5,21 L13.5,21 C13.5,15.2010101 8.79898987,10.5 3,10.5 L3,7.5 C10.4558441,7.5 16.5,13.5441559 16.5,21 Z" id="Oval-53" fill="#335EEA" opacity="0.3"></path>
        <path d="M22.5,21 L19.5,21 C19.5,12.163444 11.836556,4.5 3,4.5 L3,1.5 C13.4934102,1.5 22.5,10.5065898 22.5,21 Z" id="Oval-53-Copy" fill="#335EEA" opacity="0.3"></path>
    </g>
</svg>

<svg width="24" height="24" viewBox="0 0 24 24" xmlns="http://www.w3.org/2000/svg"><g fill="none" fill-rule="evenodd"><path d="M0 0h24v24H0z"/><circle fill="#335EEA" cx="6" cy="18" r="3"/><path d="M16.5 21h-3c0-5.799-4.701-10.5-10.5-10.5v-3c7.456 0 13.5 6.044 13.5 13.5z" fill="#335EEA" opacity=".3"/><path d="M22.5 21h-3c0-8.837-7.663-16.5-16.5-16.5v-3c10.493 0 19.5 9.007 19.5 19.5z" fill="#335EEA" opacity=".3"/></g></svg>
